findly-builder/apps/searchassist/src/assets/icons/Info_gray.svg

<?xml version="1.0" encoding="UTF-8"?>
<svg width="16px" height="16px" viewBox="0 0 16 16" version="1.1" xmlns="http://www.w3.org/2000/svg" xmlns:xlink="http://www.w3.org/1999/xlink">
    <title>Icon / 16x16 / Info</title>
    <g id="Summary-Page" stroke="none" stroke-width="1" fill="none" fill-rule="evenodd">
        <g id="Behaviour-of-today's-activity-1" transform="translate(-523.000000, -255.000000)">
            <g id="Group-19-Copy" transform="translate(415.000000, 234.000000)">
                <g id="Group-22-Copy" transform="translate(20.000000, 20.000000)">
                    <g id="Icon-/-16x16-/-Info" transform="translate(88.000000, 1.000000)">
                        <g id="Group">
                            <rect id="Rectangle" fill-opacity="0" fill="#D8D8D8" x="0" y="0" width="16" height="16"></rect>
                            <path d="M8,0.888888889 C11.9273582,0.888888889 15.1111111,4.07264178 15.1111111,8 C15.1111111,11.9273582 11.9273582,15.1111111 8,15.1111111 C4.07264178,15.1111111 0.888888889,11.9273582 0.888888889,8 C0.888888889,4.07264178 4.07264178,0.888888889 8,0.888888889 Z M8,1.94238683 C4.65447263,1.94238683 1.94238683,4.65447263 1.94238683,8 C1.94238683,11.3455274 4.65447263,14.0576132 8,14.0576132 C11.3455274,14.0576132 14.0576132,11.3455274 14.0576132,8 C14.0576132,4.65447263 11.3455274,1.94238683 8,1.94238683 Z M8,6.9168177 C8.27475346,6.9168177 8.50037524,7.12717541 8.52459632,7.39562178 L8.52674897,7.44356668 L8.52674897,11.3691751 C8.52674897,11.6600905 8.29091542,11.8959241 8,11.8959241 C7.72524654,11.8959241 7.49962476,11.6855664 7.47540368,11.41712 L7.47325103,11.3691751 L7.47325103,7.44356668 C7.47325103,7.15265125 7.70908458,6.9168177 8,6.9168177 Z M8,4.44444444 C8.35703257,4.44444444 8.64646465,4.73387653 8.64646465,5.09090909 C8.64646465,5.44794166 8.35703257,5.73737374 8,5.73737374 C7.64296743,5.73737374 7.35353535,5.44794166 7.35353535,5.09090909 C7.35353535,4.73387653 7.64296743,4.44444444 8,4.44444444 Z" id="Info" fill="#8A959F"></path>
                        </g>
                    </g>
                </g>
            </g>
        </g>
    </g>
</svg>

<svg width="16" height="16" xmlns="http://www.w3.org/2000/svg"><g fill="none" fill-rule="evenodd"><path d="M0 0h16v16H0z"/><path d="M8 .889A7.111 7.111 0 1 1 8 15.11 7.111 7.111 0 0 1 8 .89Zm0 1.053a6.058 6.058 0 1 0 0 12.116A6.058 6.058 0 0 0 8 1.942Zm0 4.975c.275 0 .5.21.525.479l.002.048v3.925a.527.527 0 0 1-1.052.048l-.002-.048V7.444c0-.291.236-.527.527-.527Zm0-2.473a.646.646 0 1 1 0 1.293.646.646 0 0 1 0-1.293Z" fill="#8A959F"/></g></svg>
